packages/components/Atoms/Icon/assets/img/rpl_icon_zoom_out.svg

<svg width="16" height="16" viewBox="0 0 16 16" overflow="visible" xmlns="http://www.w3.org/2000/svg">
  <path fill-rule="evenodd" clip-rule="evenodd" d="M9.296 7.893C8.959 8.478 8.477 8.959 7.892 9.297C7.332 9.62 6.692 9.819 6 9.819C3.895 9.819 2.182 8.106 2.182 6C2.182 3.895 3.895 2.182 6 2.182C8.105 2.182 9.818 3.895 9.818 6C9.818 6.692 9.619 7.333 9.296 7.893ZM15.707 14.293L10.885 9.472C11.584 8.491 12 7.294 12 6C12 2.693 9.308 0 6 0C2.692 0 0 2.693 0 6C0 9.308 2.692 12 6 12C7.294 12 8.489 11.584 9.47 10.885L14.293 15.707C14.488 15.903 14.744 16 15 16C15.256 16 15.512 15.903 15.707 15.707C16.098 15.317 16.098 14.684 15.707 14.293Z"
    fill="inherit" />
  <path fill-rule="evenodd" clip-rule="evenodd" d="M4.00009 5.0004C3.44709 5.0004 3.00009 5.4474 3.00009 6.0004C3.00009 6.5534 3.44709 7.0004 4.00009 7.0004H8.00009C8.55309 7.0004 9.00009 6.5534 9.00009 6.0004C9.00009 5.4474 8.55309 5.0004 8.00009 5.0004H4.00009Z"
    fill="inherit" />
</svg>

<svg width="16" height="16" overflow="visible" xmlns="http://www.w3.org/2000/svg"><path fill-rule="evenodd" clip-rule="evenodd" d="M9.296 7.893a3.82 3.82 0 01-1.404 1.404A3.77 3.77 0 016 9.819 3.823 3.823 0 012.182 6 3.823 3.823 0 016 2.182 3.823 3.823 0 019.818 6c0 .692-.199 1.333-.522 1.893zm6.411 6.4l-4.822-4.821A5.964 5.964 0 0012 6c0-3.307-2.692-6-6-6S0 2.693 0 6c0 3.308 2.692 6 6 6a5.958 5.958 0 003.47-1.115l4.823 4.822A.993.993 0 0015 16a.999.999 0 00.707-1.707z" fill="inherit"/><path fill-rule="evenodd" clip-rule="evenodd" d="M4 5a1 1 0 100 2h4a1 1 0 100-2H4z" fill="inherit"/></svg>
